X: 49
T:The Belfast Hornpipe
T:Sweep's Hornpipe
N: page 16
N: heptatonic
R:hornpipe
M:C|
K:D
ag|"D"(3faf df AdFA|DFAd f2{gf}ef|"G"gfed cAAF|"G" GABG "A" Ez ag|
"D"(3faf df AdFA|DFAd f2{gf}ef|"G"gfed "A"cABc|"D"dfec d2::
F2|"G"GFGA Bcde|"D"fgfe dcdB|A2f2 fef2|\
"A"G2e2 ede2| "G"GFGA "A"Bcde|"D"fgfe dcdB|
Afed cABc|"D"df"A"ec"D" d2:: ag|"D"(3fgf "A" (3efe "D"(3ded "A"(3cdc|\
"G"(3BcB "A"(3ABA G2 "G"ba| "G"(3gag "D"(3fgf "A"(3efe "D"(3ded|
"A"(3cdc "G"(3BcB "A"A2 ag| "D"(3fgf "A"(3efe "D"(3ded "A"(3cdc|\
"G"(3BcB "A"(3ABA "G"(3GAG "D"(3FGF|"G"Efed "A"cABc|"D"dfec d2:|
